img/ckn.svg

<?xml version="1.0" encoding="UTF-8"?>
<svg width="55px" height="64px" viewBox="0 0 55 64" version="1.1" xmlns="http://www.w3.org/2000/svg" xmlns:xlink="http://www.w3.org/1999/xlink">
    <title>CKN Logo</title>
    <desc>Christopher Kirk-Nielsen</desc>
    <g id="CKN-Logo" stroke="none" stroke-width="1" fill="#e6e6e6" fill-rule="evenodd">
        <path d="M20.9422895,42.2951037 C15.5670263,42.2951037 11.1941316,37.8820249 11.1941316,32.4579585 C11.1941316,27.0336266 15.5670263,22.6208133 20.9422895,22.6208133 C21.4051842,22.6208133 21.8659737,22.6553361 22.3215,22.721195 L24.1728158,19.4850788 C23.1204474,19.2181909 22.0354474,19.0795685 20.9422895,19.0795685 C13.6322895,19.0795685 7.68492105,25.0809627 7.68492105,32.4579585 C7.68492105,39.8349544 13.6322895,45.8363485 20.9422895,45.8363485 C23.2688684,45.8363485 25.5612368,45.216 27.5717632,44.0419585 L25.8143947,40.9768631 C24.3372895,41.8394025 22.6525526,42.2951037 20.9422895,42.2951037 L20.9422895,42.2951037 Z M42.3509737,19.4556017 L42.3509737,37.8079336 L31.8509737,19.4556017 L28.5799211,19.4556017 L28.5799211,19.4593195 L26.4165,19.4593195 L20.1265,30.4532448 L20.1265,24.6117178 C18.8383421,24.7471535 17.6433421,25.2017925 16.6172895,25.8927801 L16.6172895,39.0231369 C17.6433421,39.7141245 18.8383421,40.1684979 20.1265,40.3039336 L20.1265,37.536 L23.1101842,32.3206639 L30.5415,45.3089461 L34.5936053,45.3089461 L25.1365,28.7794191 L28.5799211,22.7599668 L28.5799211,30.9033693 L32.0893947,37.0367469 L32.0893947,26.9550207 L42.5891316,45.3068216 L45.8601842,45.3068216 L45.8601842,19.4556017 L42.3509737,19.4556017 Z M27.4278158,-0.000132780083 L-7.89473684e-05,15.9799502 L-7.89473684e-05,47.9401162 L27.4278158,63.9201992 L54.8551842,47.9401162 L54.8551842,15.9799502 L27.4278158,-0.000132780083 Z M27.4278158,2.45311203 L52.7499211,17.2065726 L52.7499211,46.7134938 L27.4278158,61.4669544 L2.10518421,46.7134938 L2.10518421,17.2065726 L27.4278158,2.45311203 L27.4278158,2.45311203 Z" id="Fill-1"></path>
    </g>
</svg>

<svg xmlns="http://www.w3.org/2000/svg" viewBox="0 0 55 64">
  <defs>
    <style>
      .fill {
        fill: #e6e6e6;
      }
    </style>
  </defs>
  <title>ckn</title>
  <g id="CKN-Logo">
    <path class="fill" d="M20.942,42.3a9.837,9.837,0,0,1,0-19.674,9.633,9.633,0,0,1,1.38.1l1.851-3.236a13.146,13.146,0,0,0-3.231-.405,13.379,13.379,0,0,0,0,26.756,13.162,13.162,0,0,0,6.63-1.794l-1.758-3.065A9.674,9.674,0,0,1,20.942,42.3ZM42.351,19.456V37.808l-10.5-18.352-5.434,0L20.126,30.453V24.612a7.712,7.712,0,0,0-3.509,1.281v13.13A7.724,7.724,0,0,0,20.126,40.3V37.536l2.984-5.215,7.432,12.988h4.052l-9.458-16.53L28.58,22.76V30.9l3.509,6.134V26.955l10.5,18.352H45.86V19.456ZM27.428,0,0,15.98V47.94L27.428,63.92,54.855,47.94V15.98Zm0,2.453L52.75,17.207V46.713L27.428,61.467,2.105,46.713V17.207L27.428,2.453Z"/>
  </g>
</svg>
